X:1
T:Kinrara Strathspey
T:Kinrara Strathspey
T:William Marshall
C:William Marshall
%%score { 1 2 }
L:1/8
M:2/2
K:Bb
V:1 treble 
V:2 bass 
V:1
 F | B>cBd FB G/F/E/D/ | B<FB>d c<C-CA | TB>cBd FB G/F/E/D/ | E<g Tf>e dB-B :| F | %6
 df e/d/c/B/ bBeg | Tf>g e/d/c/B/{dc} d<c- cd/e/ | fBdB gBeg | FB{d} (TcB/c/){Bc} dBBd | %10
 fg/a/ (bB) gBfB | e>c{e} d{c}B Ac({dcB}cd) | B<F G<B F<B G/F/E/D/ | E<g{g} Tf>e d<BB |] %14
V:2
 z | B2 B2 B2 B2 | B2 B2 c2 c2 | B2 B2 B2 B2 | e2 f2 B2 b :| z | b2 b2 b2 e2 | d2 B2 F2 F2 | %8
 B2 B2 e2 e2 | f2 F2 B2 B2 | B2 d2 e2 d2 | c2 B2 F2 F2 | d2 e2 d2 B2 | e2 f2 B2 b |] %14

